contributed-vectors/booyah.svg

<?xml version="1.0" encoding="UTF-8" standalone="no"?>
<svg
   xmlns:dc="http://purl.org/dc/elements/1.1/"
   xmlns:cc="http://creativecommons.org/ns#"
   xmlns:rdf="http://www.w3.org/1999/02/22-rdf-syntax-ns#"
   xmlns:svg="http://www.w3.org/2000/svg"
   xmlns="http://www.w3.org/2000/svg"
   xmlns:sodipodi="http://sodipodi.sourceforge.net/DTD/sodipodi-0.dtd"
   xmlns:inkscape="http://www.inkscape.org/namespaces/inkscape"
   width="192"
   height="192"
   viewBox="0 0 192 192"
   fill="none"
   version="1.1"
   id="svg6"
   sodipodi:docname="booyah.svg"
   inkscape:export-filename="/home/jphilippe/github/delta/android/contributed-vectors/booyah.png"
   inkscape:export-xdpi="96"
   inkscape:export-ydpi="96"
   inkscape:version="1.0.1 (3bc2e813f5, 2020-09-07)">
  <metadata
     id="metadata12">
    <rdf:RDF>
      <cc:Work
         rdf:about="">
        <dc:format>image/svg+xml</dc:format>
        <dc:type
           rdf:resource="http://purl.org/dc/dcmitype/StillImage" />
      </cc:Work>
    </rdf:RDF>
  </metadata>
  <defs
     id="defs10" />
  <sodipodi:namedview
     pagecolor="#ffffff"
     bordercolor="#666666"
     borderopacity="1"
     objecttolerance="10"
     gridtolerance="10"
     guidetolerance="10"
     inkscape:pageopacity="0"
     inkscape:pageshadow="2"
     inkscape:window-width="1884"
     inkscape:window-height="1052"
     id="namedview8"
     showgrid="false"
     inkscape:zoom="3.3697917"
     inkscape:cx="96"
     inkscape:cy="96"
     inkscape:window-x="36"
     inkscape:window-y="0"
     inkscape:window-maximized="1"
     inkscape:current-layer="svg6" />
  <path
     d="M36 85.5H22.5L30 41.5H92.5V28L176 23L133 149.5L94 151L43.5 179.5L59 152.5H26.5L36 85.5Z"
     fill="#4A4A4A"
     id="path2"
     style="fill:#56595b;fill-opacity:1" />
  <path
     fill-rule="evenodd"
     clip-rule="evenodd"
     d="M121.5 38.5L110.5 103.5H129L151 36L121.5 38.5ZM54.5 75.4993L45 138.999H80.5C80.5 138.999 92.5367 138.999 101.422 125.981C101.927 130.98 104.615 135.199 108.888 136.814C115.454 139.296 123.278 134.694 126.362 126.534C129.447 118.374 126.624 109.748 120.059 107.266C116.191 105.804 111.888 106.8 108.373 109.532C108.416 109.356 108.458 109.178 108.5 108.999C112.35 92.4993 99.5 86.4993 99.5 86.4993C99.5 86.4993 106.397 79 105 69.4993C102.5 52.5 82.5 53.4993 82.5 53.4993L46.5 54.4993L42.5 75.4993H54.5ZM75.5 73.4999L74 84.9999C74 84.9999 83.3549 85.3693 84.5 78.4999C85.5 72.5008 75.5 73.4999 75.5 73.4999ZM76.9867 100.086C76.9867 100.086 90.8245 99.201 89.5 107.5C87.9834 117.003 75 115.995 75 115.995H68L71 100.086H76.9867Z"
     fill="#F9DE81"
     id="path4" />
</svg>

<svg xmlns="http://www.w3.org/2000/svg" width="192" height="192" fill="none"><path fill="#4A4A4A" d="M36 85.5H22.5l7.5-44h62.5V28l83.5-5-43 126.5-39 1.5-50.5 28.5 15.5-27H26.5l9.5-67Z" style="fill:#56595b;fill-opacity:1"/><path fill="#F9DE81" fill-rule="evenodd" d="m121.5 38.5-11 65H129L151 36l-29.5 2.5Zm-67 37L45 138.998h35.5s12.037 0 20.922-13.018c.505 4.999 3.193 9.218 7.466 10.833 6.566 2.482 14.39-2.12 17.474-10.28 3.085-8.16.262-16.786-6.303-19.268-3.868-1.462-8.171-.466-11.686 2.266.043-.176.085-.354.127-.533 3.85-16.5-9-22.5-9-22.5s6.897-7.499 5.5-17c-2.5-16.999-22.5-16-22.5-16l-36 1-4 21h12Zm21-2L74 85s9.355.37 10.5-6.5c1-6-9-5-9-5Zm1.487 26.586s13.838-.885 12.513 7.414c-1.517 9.503-14.5 8.495-14.5 8.495h-7l3-15.909h5.987Z" clip-rule="evenodd"/></svg>
